X:1
T:The New Broom
M:4/4
L:1/8
R:barndance, reel
F:Catskills+Tunes.txt
K:Gmaj
D:Willie Kelly (Wed AM)
((3DEF) | G3B d2Bd | e2dB d2BA | GFGA B2AG | A2 E2 E2 ((3DEF) |
G3B d2Bd | e2dB d2Bd | edge dBAd |1 B2 G2 G2 ((3DEF) :|2 B2 G2 G2 ga ||
b3a g3a | bgag e3d | edge dBGA | BA AG A2 ga |
b3a g3a | bgag e3d | edge dBAc | B2 G2 G2 ga |
b3a g3a | bgag e3d | edge dBGA | BAAG AcBA |
G3B d2Bd | e2dB d2Bd | edge dBAc | B2G2 G4 ||
